X:79
T:John Nicholson
R:reel
C:Paul S. Cranford
O:Cape Breton Island
S:http://www.cranfordpub.com
D:currently unrecorded
B:currently unpublished in book form
Z:psc, (re-formatted,updated 9/17/04)
N:
H:                                                        copyrights Cranford Publications, SOCAN
Q:333
L:1/8
M:C|
K:F
FE|F2 EF DCA,C|F2 EF Acde|f2 ed cAFA|BGAF D2 CE|
F2 EF DCA,C|F2 EF Acde|f2 ed cAFA|GCEG F2:|
|:ce|fcdB AGFA|BDGF EDCB,|A,G,A,C B,A,B,D|CEGE F2 fg|
agfe fcAc|BdcA GCEG|AGFE FCA,C|G,CEG F2:|
